X:546
T:Kim's Game
C:Colin Hume, 1995
S:Colin Hume's website,  colinhume.com  - chords can also be printed below the stave.
%%MIDI ratio 3 1
L:1/4
M:2/2
R:Reel
Q:1/2=116
K:G
P:A
d | "G"fg "/"fg | "G"d2- "/"dB | "C"^de "/B"de | "Am"c2 "/"A^A |\
"G"B^A "/"Bc | "Em"dB "/"AG | "A7"ze- "/"e^c | "D"d2- "D7"dd |
"G"fg "/"fg | "G"d2- "/"dB | "C"^de "/B"de | "Am"c2 "/"EF |\
"Em"GF "/"ED | "Am"CD "/"E3/C/ | "D"^CD "/"CD | "G"G,2- "/"G,G |
P:B
"B7"FF- "/"FG | "B7"A2 "/"GF | "Em"G2 "B7"A2 | "Em"B2- "/"B_B |\
"D/D"AA- "/C"A=B | "D7/B"c2 "/A"BA | "G/G"B2 "/F"c2 | "G7/E"d2- "/D"dd |
"C"^de "/B"de | "Am"c2- "/"cA | "G"^cd "/F#"cd | "E7"B2 "/"^AB |\
"Am"cE "/"FG | "D7"B2 "/"B2 | "G"G2-"C"G2- | "G"G2- "D7"G2 |]
K:G
%%center Second tune
P:A
|: "G"z/d/- d/^c/ d^d | "E7"e=d cB | "Am"z/c/-c/B/ c^c | "D"d=c BA |\
"Em"z/B/-B/^A/ BG | "Am"z/c/-c/B/ c=A | "D7"z/d/-d/^c/ dB |1 AF ED :|2 "G"GB "G7"cd |
P:B
"C"e2 c>B | "D7"AB2c | "G"d2 e2 | "Em"BG3 |\
"C"c2 A>G | "D7"FG2A | "G"B2 "D7"c2 | "G"dB "G7"cd |
"C"e2 c>B | "D7"AB2c | "G"d2 "/F#"e2 | "Em"BG- "/D"GE |\
"C"BA GE | "Am"G2 "D7"A2 | "G"G2- "C"G2- | "G"G4 |]

